X: 35871
T: Sandhills, The
R: reel
M: 4/4
K: Dmajor
d2 cd ADFA|G2 E=C G,CEG|Adde cdeg|fdec Agfe|
d2 cd ADFA|G2 E=C G,CEG|Adde cdeg|1 fdec dgfe:|2 fdec defg||
a2 fd ad (3ddd|adfd BGBd|g2 e=c gcec|g=cec defg|
a2 fd adfd|adfd BGBd|gfed ceag|1 fgec defg:|2 fgec dgfe||

